X: 201900
T: Turnpike Gate [2nd setting]
S: "The Roche Collection of Traditional Irish Music" [I/74/195]
L: 1/8
M: 4/4
R: reel
K: A
A3c eAce | fb b2 fa a2 | A3c eAce | faec cBBc |
A3c eAce | fb b2 faab | c'aba f2 ec | faec B2 Bz ||
a3e fece | eAcA ceef | a3e fece | faec cB B2 |
a3e fece | fece a2 ab | c'aba f2 ec | faec B2 z2 |]
